public/svg/broker-info-seven.svg

<svg width="70" height="70" viewBox="0 0 70 70" fill="none" xmlns="http://www.w3.org/2000/svg">
<path d="M42.6562 49.2188C40.8472 49.2188 39.375 50.6909 39.375 52.5C39.375 54.3091 40.8472 55.7812 42.6562 55.7812C44.4653 55.7812 45.9375 54.3091 45.9375 52.5C45.9375 50.6909 44.4653 49.2188 42.6562 49.2188ZM42.6562 53.5938C42.0525 53.5938 41.5625 53.1037 41.5625 52.5C41.5625 51.8963 42.0525 51.4062 42.6562 51.4062C43.26 51.4062 43.75 51.8963 43.75 52.5C43.75 53.1037 43.26 53.5938 42.6562 53.5938Z" fill="currentColor"/>
<path d="M7.6582 62.3438H16.4082V53.5938H7.6582V62.3438ZM9.8457 55.7812H14.2207V60.1562H9.8457V55.7812Z" fill="currentColor"/>
<path d="M68.9062 12.6722L57.3278 1.09375H25.1562V9.84375H14.2188V10.9375C14.2188 13.953 11.7655 16.4062 8.75 16.4062C5.73453 16.4062 3.28125 13.953 3.28125 10.9375C3.28125 7.92203 5.73453 5.46875 8.75 5.46875C10.6958 5.46875 12.5114 6.51656 13.4881 8.20422L15.3803 7.10828C14.0153 4.74797 11.4745 3.28125 8.75 3.28125C4.52922 3.28125 1.09375 6.71672 1.09375 10.9375C1.09375 15.1583 4.52922 18.5938 8.75 18.5938C12.6011 18.5938 15.7959 15.7369 16.3286 12.0312H25.1562V27.3438H14.2188V28.4375C14.2188 31.453 11.7655 33.9062 8.75 33.9062C5.73453 33.9062 3.28125 31.453 3.28125 28.4375C3.28125 25.422 5.73453 22.9688 8.75 22.9688C10.6958 22.9688 12.5114 24.0166 13.4881 25.7042L15.3803 24.6083C14.0153 22.248 11.4745 20.7812 8.75 20.7812C4.52922 20.7812 1.09375 24.2167 1.09375 28.4375C1.09375 32.6583 4.52922 36.0938 8.75 36.0938C12.6011 36.0938 15.7959 33.2369 16.3286 29.5312H25.1562V36.5269L20.7823 33.6963L1.09484 46.4352V49.2188H3.28234V68.9062H55.7812V60.1562H68.9062V12.6722ZM62.3438 14.2188V18.5938H31.7188V7.65625H55.7812V14.2188H62.3438ZM57.9688 12.0312V4.82781L65.1722 12.0312H57.9688ZM60.0677 51.7409C59.8642 50.8878 59.3414 50.1659 58.5944 49.7055L51.9991 45.6477C52.92 43.8298 54.7859 42.6562 56.875 42.6562C59.8905 42.6562 62.3438 45.1095 62.3438 48.125C62.3438 49.9078 61.4731 51.4784 60.1497 52.4781C60.1475 52.232 60.1256 51.9859 60.0677 51.7409ZM57.447 51.567C57.6997 51.7234 57.8703 51.9575 57.9392 52.2452C58.007 52.5339 57.9611 52.8205 57.8058 53.0731C57.4963 53.5741 56.8039 53.7381 56.3019 53.4308L42.6562 45.0341L29.0106 53.4319C28.5075 53.7403 27.8152 53.5752 27.5056 53.0753C27.3503 52.8227 27.3044 52.5361 27.3733 52.2473C27.4422 51.9586 27.6117 51.7234 27.8644 51.5692L42.0842 42.8181C42.4277 42.607 42.8838 42.607 43.2261 42.8181L57.447 51.567ZM31.0636 47.0312H21.8761V37.0103L34.2923 45.0439L31.0636 47.0312ZM19.6886 37.0103V47.0312H4.20219L19.6886 37.0103ZM5.46984 49.2188H27.5089L26.7192 49.7044C25.9722 50.1627 25.4494 50.8856 25.2459 51.7388C25.0972 52.3633 25.1377 53.0009 25.3477 53.5927H18.5948V62.3427H27.3448V55.5702C27.6927 55.6927 28.0547 55.7802 28.4386 55.7802C28.8137 55.7802 29.1812 55.7091 29.5312 55.5844V66.7188H5.46984V49.2188ZM25.1573 55.7812V60.1562H20.7823V55.7812H25.1573ZM47.0312 66.7188H38.2812V60.1562H47.0312V66.7188ZM49.2188 66.7188V57.9688H36.0938V66.7188H31.7188V54.3342L42.6562 47.6022L53.5938 54.3331V66.7188H49.2188ZM55.7812 57.9688V55.5855C56.1312 55.7091 56.4987 55.7812 56.8739 55.7812C61.0947 55.7812 64.5312 52.3458 64.5312 48.125C64.5312 43.9042 61.0958 40.4688 56.875 40.4688C54.0116 40.4688 51.4533 42.0481 50.1375 44.5014L44.3723 40.9544C43.3409 40.3178 41.9727 40.3178 40.938 40.9544L36.3552 43.7741L27.3438 37.9433V3.28125H55.7812V5.46875H29.5312V20.7812H64.5312V14.2188H66.7188V57.9688H55.7812Z" fill="currentColor"/>
<path d="M7.65609 29.0785L6.24187 27.6643L4.69531 29.2109L7.65609 32.1717L12.8044 27.0234L11.2578 25.4768L7.65609 29.0785Z" fill="currentColor"/>
<path d="M7.65609 11.5785L6.24187 10.1643L4.69531 11.7109L7.65609 14.6716L12.8044 9.52337L11.2578 7.97681L7.65609 11.5785Z" fill="currentColor"/>
<path d="M29.5312 29.5312H36.0938V22.9688H29.5312V29.5312ZM31.7188 25.1562H33.9062V27.3438H31.7188V25.1562Z" fill="currentColor"/>
<path d="M38.2812 22.9688H40.4688V25.1562H38.2812V22.9688Z" fill="currentColor"/>
<path d="M42.6562 22.9688H64.5312V25.1562H42.6562V22.9688Z" fill="currentColor"/>
<path d="M38.2812 27.3438H64.5312V29.5312H38.2812V27.3438Z" fill="currentColor"/>
<path d="M29.5312 38.2812H36.0938V31.7188H29.5312V38.2812ZM31.7188 33.9062H33.9062V36.0938H31.7188V33.9062Z" fill="currentColor"/>
<path d="M62.3438 36.0938H64.5312V38.2812H62.3438V36.0938Z" fill="currentColor"/>
<path d="M38.2812 36.0938H60.1562V38.2812H38.2812V36.0938Z" fill="currentColor"/>
<path d="M38.2812 31.7188H64.5312V33.9062H38.2812V31.7188Z" fill="currentColor"/>
</svg>

<svg xmlns="http://www.w3.org/2000/svg" width="70" height="70" fill="none"><path fill="currentColor" d="M42.656 49.219a3.285 3.285 0 0 0-3.281 3.281 3.285 3.285 0 0 0 3.281 3.281 3.285 3.285 0 0 0 3.282-3.281 3.285 3.285 0 0 0-3.282-3.281m0 4.375a1.094 1.094 0 1 1 .001-2.189 1.094 1.094 0 0 1 0 2.189M7.658 62.344h8.75v-8.75h-8.75zm2.188-6.563h4.375v4.375H9.846z"/><path fill="currentColor" d="M68.906 12.672 57.328 1.094H25.156v8.75H14.22v1.094a5.475 5.475 0 0 1-5.469 5.468 5.475 5.475 0 0 1-5.469-5.468 5.475 5.475 0 0 1 5.469-5.47 5.49 5.49 0 0 1 4.738 2.736l1.892-1.096a7.68 7.68 0 0 0-6.63-3.827c-4.22 0-7.656 3.436-7.656 7.656 0 4.221 3.435 7.657 7.656 7.657 3.851 0 7.046-2.857 7.579-6.563h8.827v15.313H14.22v1.093a5.475 5.475 0 0 1-5.469 5.47 5.475 5.475 0 0 1-5.469-5.47A5.475 5.475 0 0 1 8.75 22.97a5.49 5.49 0 0 1 4.738 2.735l1.892-1.096a7.68 7.68 0 0 0-6.63-3.827c-4.22 0-7.656 3.436-7.656 7.657 0 4.22 3.435 7.656 7.656 7.656 3.851 0 7.046-2.857 7.579-6.563h8.827v6.996l-4.374-2.83L1.095 46.434v2.784h2.187v19.687h52.5v-8.75h13.124zm-6.562 1.547v4.375H31.719V7.656H55.78v6.563zm-4.375-2.188V4.828l7.203 7.203zm2.099 39.71a3.26 3.26 0 0 0-1.474-2.035L52 45.648a5.45 5.45 0 0 1 4.876-2.992 5.475 5.475 0 0 1 5.469 5.469c0 1.783-.87 3.353-2.194 4.353a3.3 3.3 0 0 0-.082-.737m-2.621-.174c.253.156.423.39.492.678a1.08 1.08 0 0 1-.133.828 1.114 1.114 0 0 1-1.504.358l-13.646-8.397-13.645 8.398a1.115 1.115 0 0 1-1.505-.357 1.08 1.08 0 0 1-.133-.828c.07-.288.239-.524.491-.678l14.22-8.75c.344-.212.8-.212 1.142 0zm-26.383-4.536h-9.188v-10.02l12.416 8.033zm-11.375-10.02v10.02H4.202zM5.469 49.218h22.04l-.79.485a3.26 3.26 0 0 0-1.473 2.035 3.26 3.26 0 0 0 .102 1.854h-6.753v8.75h8.75V55.57c.348.123.71.21 1.094.21.375 0 .742-.07 1.092-.196V66.72H5.47zm19.688 6.562v4.375h-4.375v-4.375zM47.031 66.72h-8.75v-6.563h8.75zm2.188 0v-8.75H36.094v8.75h-4.375V54.334l10.937-6.732 10.938 6.731V66.72zm6.562-8.75v-2.383c.35.123.718.195 1.093.195 4.22 0 7.657-3.435 7.657-7.656 0-4.22-3.435-7.656-7.656-7.656a7.63 7.63 0 0 0-6.737 4.032l-5.766-3.547a3.33 3.33 0 0 0-3.434 0l-4.583 2.82-9.011-5.83V3.28H55.78V5.47h-26.25V20.78h35V14.22h2.188v43.75z"/><path fill="currentColor" d="m7.656 29.079-1.414-1.415-1.547 1.547 2.961 2.96 5.148-5.148-1.546-1.546zM7.656 11.579l-1.414-1.415-1.547 1.547 2.961 2.96 5.148-5.148-1.546-1.546zM29.531 29.531h6.563V22.97H29.53zm2.188-4.375h2.187v2.188H31.72zM38.281 22.969h2.188v2.187H38.28zM42.656 22.969h21.875v2.187H42.656zM38.281 27.344h26.25v2.187h-26.25zM29.531 38.281h6.563V31.72H29.53zm2.188-4.375h2.187v2.188H31.72zM62.344 36.094h2.187v2.187h-2.187zM38.281 36.094h21.875v2.187H38.281zM38.281 31.719h26.25v2.187h-26.25z"/></svg>
